X:208
T:Polska
R:sl\"angpolska
H:Se \"aven #14, #51, #150, #172
A:S\"ormland
B:A.P. Andersson 1880
Z:id:hn-sp-208
M:3/4
L:1/16
K:Am
A2AB c2cB A2B2 | c2d2 e4 c2e2 | e2g2 g2f2 d2f2 | a2g2 e4 z4 :|
|: e2g2 g2f2 d2f2 | a2g2 e4 c4 | c2Bc d4 e4 | g2f2 d4 B4 |
cBcd e2e2 c2c2 | B2B2 A4 z4 :|
<end>
<start>
